Gruvbox-Plus-Dark/actions/16/hide-reconciled.svg

<svg width="16" height="16" version="1.1" viewBox="0 0 16 16" xmlns="http://www.w3.org/2000/svg">
  <defs>
    <style type="text/css">.ColorScheme-Text { color:#ebdbb2; } .ColorScheme-Highlight { color:#458588; }</style>
  </defs>
  <path class="ColorScheme-Text" d="m3.5 1v1h3.5v11h-2.5v2h7v-2h-2.5v-11h3.496v-1h-8.996zm8.996 1-2.496 6a2.5 2.5 0 0 0 2.5 2.5 2.5 2.5 0 0 0 2.5-2.5l-2.504-6zm-8.996 0-2.496 6a2.5 2.5 0 0 0 2.5 2.5 2.5 2.5 0 0 0 2.5-2.5l-2.504-6zm0.001953 2 1.668 4h-3.332l1.664-4zm8.996 0 1.668 4h-3.332l1.664-4z" fill="currentColor" opacity=".3"/>
</svg>

<?xml version="1.0" encoding="UTF-8" standalone="no"?>
<svg
   width="16"
   height="16"
   version="1.1"
   viewBox="0 0 16 16"
   id="svg1"
   sodipodi:docname="hide-reconciled.svg"
   inkscape:version="1.3.2 (091e20ef0f, 2023-11-25, custom)"
   xmlns:inkscape="http://www.inkscape.org/namespaces/inkscape"
   xmlns:sodipodi="http://sodipodi.sourceforge.net/DTD/sodipodi-0.dtd"
   xmlns="http://www.w3.org/2000/svg"
   xmlns:svg="http://www.w3.org/2000/svg">
  <sodipodi:namedview
     id="namedview1"
     pagecolor="#ffffff"
     bordercolor="#666666"
     borderopacity="1.0"
     inkscape:showpageshadow="2"
     inkscape:pageopacity="0.0"
     inkscape:pagecheckerboard="0"
     inkscape:deskcolor="#d1d1d1"
     showgrid="true"
     inkscape:zoom="27.26482"
     inkscape:cx="8.0139903"
     inkscape:cy="7.9956517"
     inkscape:window-width="958"
     inkscape:window-height="847"
     inkscape:window-x="962"
     inkscape:window-y="233"
     inkscape:window-maximized="0"
     inkscape:current-layer="svg1">
    <inkscape:grid
       id="grid1"
       units="px"
       originx="0"
       originy="0"
       spacingx="1"
       spacingy="1"
       empcolor="#0099e5"
       empopacity="0.30196078"
       color="#0099e5"
       opacity="0.14901961"
       empspacing="5"
       dotted="false"
       gridanglex="30"
       gridanglez="30"
       visible="true" />
  </sodipodi:namedview>
  <defs
     id="defs1">
    <style
       type="text/css"
       id="style1">.ColorScheme-Text { color:#ebdbb2; } .ColorScheme-Highlight { color:#458588; }</style>
  </defs>
  <path
     class="ColorScheme-Text"
     d="M 3.5,1 V 2 H 7 v 11 l -4,1 v 1 H 13 V 14 L 9,13 V 2 h 3.496 V 1 Z M 12.496,2 10,8 c 0,1.381 1.119,2.5 2.5,2.5 C 13.881,10.5 15,9.381 15,8 Z M 3.5,2 1.004,8 c 0,1.381 1.119,2.5 2.5,2.5 1.381,0 2.5,-1.119 2.5,-2.5 z m 0.00195,2 1.668,4 h -3.332 z m 8.996,0 1.668,4 h -3.332 z"
     fill="currentColor"
     opacity="0.3"
     id="path1"
     sodipodi:nodetypes="cccccccccccccccsccccscccccccccc" />
</svg>
